X:1
T:Title
%%score { ( 1 4 ) | ( 2 3 ) }
L:1/8
M:6/8
K:G
V:1 treble nm="Grand Piano"
V:4 treble 
V:2 treble 
V:3 treble 
V:1
 z3 z2[Q:1/4=84] [GB] | [Bd]>^c[DBd] [DGB]2 [DG] | [EG]>F[CEG] [G,B,D]2 [B,D]/[B,D]/ | G2 B d2 B | %4
 [FA]3- [FA] z [GB]/[GB]/ | [Bd]>^c[DBd] [DGB]2 [DG] | [EG]>F[CEG] [B,D]2 [B,D]/[B,D]/ | %7
 [CE][CEG][EAc] [DGB]2 [CFA] | [G,B,G]3- [G,B,G] z [DGB] | [FA]2 [GB]/B/ [DAc]2 [DFA] | %10
 [DG]2 [DFA] B2 c | d>dd B2 G | [FA]3- [FA] z [GB]/[GB]/ | [Bd]^c[DBd] [DGB]2 [DG] | %14
 [EG]F[CEG] [G,B,D]2 [B,D]/[B,D]/ | [CE]G[EAc] [DGB]2 [CFA] |[M:5/8] [G,B,G]-[G,B,G]- [G,B,G]3 | %17
[M:1/8] [Gd]/[Gd]/ |[M:3/4] [Ge]2 [EGc] [EGc]2 [Ge] | [B,Gd]2 [DGB] [DGB]2 [DGB] | %20
 [DFA]2 [DFA]/[DFA]/[DFA] [GB][EG^c] | [DFd]4 z [Dcd] | [Bd]>^c [DBd] [DGB]2 [DG]/[DG]/ | %23
 [EG]>F [CEG] [B,D]2 [B,D]/[B,D]/ | [CE]G [EAc] [DGB]2 [CFA] |[M:5/8] [G,B,G]- [G,B,G]3 z |] %26
V:2
 z3 z2 [G,D] | .[G,D]3 z3[K:bass] | z z/ ^D/C, G,,2 G,,/G,,/ | [G,B,D]2 [G,DG] [B,DG]2 [G,DG] | %4
 [D,D]3- [D,D] z[K:treble] [G,D] | .[G,D]3 z3[K:bass] | .[C,C]3 z3 | C,C,C, D,2 D, | %8
 G,,3- G,, z G, | [D,D]2 z/ G/ D,2 D, | B,,2 D,[K:treble] [G,DG]2 [G,CG] | %11
 G>G[G,B,G] [G,G]2[K:bass] [E,B,] | [D,D]3- [D,D] z [G,D] | .[G,D]3[K:treble][K:bass] z3 | %14
 z ^DC, G,,2 G,,/G,,/ | z EC, D,2 D, |[M:5/8] G,,-G,,- G,,3 |[M:1/8] [G,B,]/[G,B,]/ | %18
[M:3/4] [C,C]2 C, C,2 [C,C] | G,,2 G,, G,,2 G,, | z2 z .A,3 | D,4 z F, | [G,D]2 z2 z2[K:bass] | %23
 [C,C]2 z2 z2 | z E C, D,2 D, |[M:5/8] G,,- G,,3 z |] %26
V:3
 x6 | z z/ _B/G, G,2[K:bass] B,, | .C,3 z3 | x6 | x5[K:treble] x | z z/ _B/G, G,2[K:bass] B,, | %6
 z z/ ^D/C, G,,2 G,,/G,,/ | x6 | x6 | z2 [D,D] z3 | x3[K:treble] x3 | .[G,B,]3 z3[K:bass] | x6 | %13
 z[K:treble] _BG,[K:bass] G,2 B,, | .C,3 z3 | .C,3 z3 |[M:5/8] x5 |[M:1/8] x |[M:3/4] x6 | x6 | %20
 D,2 D,<.D, ^CA, | x6 | z z/ _B/ G, G,2[K:bass] B,,/B,,/ | z z/ ^D/ C, G,,2 G,,/G,,/ | C,2 z2 z2 | %25
[M:5/8] x5 |] %26
V:4
 x6 | x6 | .C3 z3 | x6 | x6 | x6 | x6 | x6 | x6 | x6 | x6 | x6 | x6 | x6 | .C3 z3 | x6 | %16
[M:5/8] x5 |[M:1/8] x |[M:3/4] x6 | x6 | x6 | x6 | x6 | x6 | x6 |[M:5/8] x5 |] %26

